_includes/icons/color-tags.svg

<svg fill="#666" height="50" viewBox="0 0 48 48" width="50" xmlns="http://www.w3.org/2000/svg"><path d="m26.054688 13-14.882813 14.855469c-1.5625 1.558594-1.5625 4.085937 0 5.648437l10.34375 10.324219c1.5625 1.5625 4.09375 1.5625 5.65625 0l14.828125-14.855469v-11.980468c0-2.203125-1.738281-3.992188-3.945312-3.992188zm9.945312 8c-1.105469 0-2-.894531-2-2s.894531-2 2-2 2 .894531 2 2-.894531 2-2 2" fill="#dd2c00"/><path d="m22.027344 4-14.859375 14.855469c-1.558594 1.558594-1.558594 4.085937 0 5.648437l10.328125 10.324219c1.558594 1.5625 4.089844 1.5625 5.644531 0l14.859375-14.851562v-11.984375c0-2.207032-1.789062-3.992188-3.992187-3.992188zm10 7.957031c-1.105469 0-2-.894531-2-1.992187 0-1.101563.894531-1.992188 2-1.992188 1.101562 0 2 .890625 2 1.992188 0 1.101562-.914063 2.007812-2.019531 2.007812" fill="#ff5722"/></svg>

<svg xmlns="http://www.w3.org/2000/svg" viewBox="0 0 48 48" width="50" height="50" fill="#666"><path d="M 26.054688 13 L 11.171875 27.855469 C 9.609375 29.414063 9.609375 31.941406 11.171875 33.503906 L 21.515625 43.828125 C 23.078125 45.390625 25.609375 45.390625 27.171875 43.828125 L 42 28.972656 L 42 16.992188 C 42 14.789063 40.261719 13 38.054688 13 Z M 36 21 C 34.894531 21 34 20.105469 34 19 C 34 17.894531 34.894531 17 36 17 C 37.105469 17 38 17.894531 38 19 C 38 20.105469 37.105469 21 36 21" fill="#dd2c00"/><path d="M 22.027344 4 L 7.167969 18.855469 C 5.609375 20.414063 5.609375 22.941406 7.167969 24.503906 L 17.496094 34.828125 C 19.054688 36.390625 21.585938 36.390625 23.140625 34.828125 L 38 19.976563 L 38 7.992188 C 38 5.785156 36.210938 4 34.007813 4 Z M 32.027344 11.957031 C 30.921875 11.957031 30.027344 11.0625 30.027344 9.964844 C 30.027344 8.863281 30.921875 7.972656 32.027344 7.972656 C 33.128906 7.972656 34.027344 8.863281 34.027344 9.964844 C 34.027344 11.066406 33.113281 11.972656 32.007813 11.972656" fill="#ff5722"/></svg>
